movie-open-settings.svg

<svg fill="currentColor" viewBox="0 0 24 24"><path d="M14.75 5.46 12 1.93l1.97-.39 2.74 3.53zm6.87-1.36L20.84.18l-3.93.78 2.74 3.54zm-9.81 1.95L9.07 2.5l-1.97.41 2.75 3.53zM2 8v10a2 2 0 0 0 2 2h16c1.11 0 2-.89 2-2V8zm2.16-4.5-.98.19a2.01 2.01 0 0 0-1.57 2.35L2 8l4.9-.97zM11 24h2v-2h-2zm-4 0h2v-2H7zm8 0h2v-2h-2z"/></svg>

<svg  viewBox="0 0 24 24" fill="currentColor"><path  d="M14.75 5.46L12 1.93L13.97 1.54L16.71 5.07L14.75 5.46M21.62 4.1L20.84 .18L16.91 .96L19.65 4.5L21.62 4.1M11.81 6.05L9.07 2.5L7.1 2.91L9.85 6.44L11.81 6.05M2 8V18C2 19.11 2.9 20 4 20H20C21.11 20 22 19.11 22 18V8H2M4.16 3.5L3.18 3.69C2.1 3.91 1.4 4.96 1.61 6.04L2 8L6.9 7.03L4.16 3.5M11 24H13V22H11V24M7 24H9V22H7V24M15 24H17V22H15V24Z"/></svg>
